X: 2308
T: WHA' WIDNA FECHT
R: Scotch Jig.
%R: jig
B: James Kerr "Merry Melodies" v.2 p.34 #308
Z: 2016 John Chambers <jc:trillian.mit.edu>
M: 6/8
L: 1/8
K: G
|:\
vGGG uG2uA | BAG Bcd | GGG uG2uA | BdB A3 |\
GGG uG2uA | BAG Bcd | egg dgg | Bgg uA2ud :|
|:\
Bdd ded | gdd ede | Bdd ded | gdB uA2ud |\
Bdd ded | gdd edd | egg dgg | Bgg A2d :|
